svgs/gadgetbridge.svg

<?xml version="1.0" encoding="UTF-8" standalone="no"?>
<svg version="1.1" width="192" height="192" xmlns="http://www.w3.org/2000/svg">
    <path
        d="m 58.685199,44.538163 c 4.532074,-4.859303 8.693227,-10.051879 12.448418,-15.534 2.057859,-3.15491 4.749481,-5.847072 7.903758,-7.905344 1.83862,-1.154665 3.9238,-1.858893 6.085894,-2.055389 1.930738,-0.212099 3.866066,0.35723 5.374555,1.581069 2.038432,1.306025 3.109153,3.696231 2.726796,6.087115 -1.171785,3.340527 -2.695228,6.547026 -4.544661,9.565465 l -8.694133,13.715772 m 6.243968,-9.88168 c 3.661069,-5.723357 7.941778,-11.025609 12.764568,-15.810687 3.497448,-1.987244 7.742588,-2.149418 11.381408,-0.434795 9.99826,3.952673 0.86941,18.103238 -1.85739,22.648811 0,0 -12.250814,19.763359 -18.178632,29.724092 -3.363113,3.854557 -9.32366,3.946559 -12.804087,0.197633 C 75.91539,74.736576 72.67485,69.835263 74.176564,67.384607 M 110.33625,43.470942 c 2.57178,-3.28713 5.81978,-5.983104 9.52403,-7.905344 3.10161,-1.701606 6.85713,-1.701606 9.95872,0 6.24397,2.727344 3.59622,11.502275 1.85739,14.782993 -1.73883,3.280718 -13.63398,19.526199 -18.53431,26.601482 -2.20597,2.268337 -4.91302,3.98766 -7.90376,5.019892 -1.94372,0.71744 -3.9661,1.128101 -5.80925,0.197634 -2.129331,-1.097379 -3.827547,-2.879471 -4.821293,-5.05942 -1.085525,-2.687712 -0.842805,-5.579904 0.24272,-8.267617 m 51.162563,-1.963626 c 0,0 -2.48104,20.547716 -2.91574,24.026068 -0.6323,8.537771 -6.95531,17.431276 -12.88313,24.862306 -3.21883,3.9132 -6.73315,7.57358 -10.51199,10.9489 v 9.20973 H 70.06661 v -13.7553 C 60.977289,110.07346 49.082134,100.23131 43.707579,87.029386 37.424092,71.574439 47.140458,54.441678 58.877537,44.322839 l -0.152819,0.215324 c 8.32428,1.06869 16.46224,3.276489 24.185498,6.561436 5.185989,2.353886 7.361695,8.558589 4.781773,13.636717 -2.252571,4.545573 -9.840178,3.952672 -17.032597,1.818229 L 62.004778,63.352881 60.424026,67.58224 M 131.55783,50.388118 c 4.03012,-4.259539 10.6189,-4.804457 15.29377,-1.264855 6.63916,3.952672 2.17354,13.873878 -1.69931,18.972825 l -12.52744,16.443114 c -3.20074,4.152669 -9.20916,4.816419 -13.2388,1.462489 -3.71476,-3.083085 -4.22851,-10.948901 -0.94845,-16.640749 M 58.250493,135.92394 H 130.96506 V 158.6518 H 58.250493 Z M 69.829498,158.6518 H 119.34653 V 173 H 69.592384 Z"
        fill="none"
        stroke="#000000"
        stroke-linecap="round"
        stroke-linejoin="round"
        stroke-width="6"/>
</svg>

<svg width="192" height="192" xmlns="http://www.w3.org/2000/svg"><path d="M58.685 44.538a132.844 132.844 0 0 0 12.449-15.534 27.152 27.152 0 0 1 7.903-7.905 13.79 13.79 0 0 1 6.086-2.056 7.27 7.27 0 0 1 5.375 1.581 6.088 6.088 0 0 1 2.727 6.088 49.966 49.966 0 0 1-4.545 9.565l-8.694 13.716m6.244-9.882a92.45 92.45 0 0 1 12.764-15.81 12.367 12.367 0 0 1 11.382-.435c9.998 3.952.87 18.103-1.858 22.648 0 0-12.25 19.764-18.178 29.725-3.363 3.854-9.324 3.946-12.804.197-1.62-1.7-4.861-6.6-3.36-9.051m36.16-23.914a29.127 29.127 0 0 1 9.524-7.905 10.352 10.352 0 0 1 9.959 0c6.244 2.727 3.596 11.502 1.857 14.783-1.738 3.28-13.634 19.526-18.534 26.601a20.233 20.233 0 0 1-7.904 5.02c-1.943.717-3.966 1.128-5.809.198a10.671 10.671 0 0 1-4.821-5.06c-1.086-2.688-.843-5.58.242-8.267m51.163-1.964s-2.481 20.548-2.916 24.026c-.632 8.538-6.955 17.431-12.883 24.862a99.045 99.045 0 0 1-10.512 10.95v9.209H70.067v-13.755c-9.09-12.096-20.985-21.938-26.36-35.14-6.283-15.455 3.433-32.587 15.17-42.706l-.152.215A91.59 91.59 0 0 1 82.91 51.1c5.186 2.353 7.362 8.558 4.782 13.636-2.253 4.546-9.84 3.953-17.033 1.819l-8.654-3.202-1.581 4.23m71.134-17.195a11.498 11.498 0 0 1 15.294-1.265c6.639 3.953 2.173 13.874-1.7 18.973L132.625 84.54c-3.2 4.153-9.21 4.817-13.239 1.463-3.715-3.083-4.228-10.95-.948-16.641M58.25 135.924h72.715v22.728H58.25Zm11.58 22.728h49.517V173H69.592Z" fill="none" stroke="#000" stroke-linecap="round" stroke-linejoin="round" stroke-width="6"/></svg>
